!!!OTL: Gongshe siji shi chuntian
!!!ARE: Asia, China,ÿHunan Huitong
!! I, 509
!!!SCT: C1964
!!!YEM: Copyright 1995, estate of Helmut Schaffrath.
**kern
*ICvox
*Ivox
!! Mixed meters:  3/4; 2/4
*M3/4
*k[f#]
*G:
{8a
16a
16a
8a
16a
16b
4dd
=1
16b
16a
16g
16a
8dd
8b
4a}
=2
{16a
16b
16a
16g
16e
16d
16e
16g
4a
=3
8g
16a
16g
16e
16d
8e
4d}
=4
{8a
16a
16a
8a
16a
16b
4dd
=5
16b
16a
16g
16a
8dd
8b
4a}
=6
{16a
16b
16a
16g
16e
16d
16e
16g
4a
=7
8g
16a
16g
16e
16d
8e
4d}
=8
*M2/4
{8dd
8dd
16b
16a
16g
16a
=9
8dd
8b
4a}
=10
*M3/4
{16a
16b
16a
16g
16e
16d
16e
16g
4a
=11
8g
16a
16g
16e
16d
8e
4d}
==
!!!AGN: Xiaodiao, Bawangbian
!!!ONB: ESAC (Essen Associative Code) Database: SENGANSU
!!!AMT: irregular
!!!AIN: vox
!!!EED: Helmut Schaffrath
!!!EEV: 1.0
*-
